X:1
T:Erschüttre dich nur nicht
T:BWV 99/3
T:Johann Sebastian Bach arr. André Papillon 
%%score 1 { ( 2 4 ) | 3 }
L:1/8
Q:1/8=110
M:3/8
K:G
V:1 treble nm="Flûte, Flute"
V:2 treble nm="Piano"
V:4 treble 
V:3 bass 
V:1
"^\n" B(e/^d/)(e/d/) | e/g/4f/4e/B/b- | b^a/=a/^g/=g/ | f/^d/4e/4f/b/B- | %4
 B/4=d/4c/4d/4=f/4d/4c/4d/4^g/4d/4c/4d/4 | c/4e/4d/4e/4a/4e/4d/4e/4c'/4e/4d/4e/4 | %6
 ^c/4e/4d/4e/4g/4e/4d/4e/4^a/4e/4d/4e/4 | ^d/4f/4e/4f/4b/4f/4e/4f/4^d'/4b/4=a/4b/4 | %8
 c'/4a/4g/4a/4b/4g/4f/4g/4a/4f/4e/4f/4 | g/4e/4^d/4e/4f/4d/4^c/4d/4e- | e/f/4g/4a/^a/b/^d/ | %11
 e/4g/4f/4g/4b/4g/4f/4g/4e' | z3 | z3 | z3 | z z b- | b/4g/4f/4g/4e/4g/4f/4g/4^c/4g/4f/4g/4 | %17
 a/4f/4e/4f/4^d/4f/4e/4f/4B/4f/4e/4f/4 | g/B/c/^c/d/^d/ | e/4g/4f/4g/4b/4g/4f/4g/4e' | z3 | b3- | %22
 b^a/=a/^g/=g/ | f/^d/4e/4f/b/B- | B/4c/4=d/4e/4 =f/^f/g/^g/ | a z ^c- | c/4d/4e/4f/4 g/^g/a/^a/ | %27
 b2 z | FB/^A/B/A/ | B/d/4^c/4B/F/f- | f^e/=e/^d/=d/ | ^c/^A/4B/4c/f/F- | %32
 F/4=A/4G/4A/4c/4A/4G/4A/4^d/4A/4G/4A/4 | G/4B/4A/4B/4e/4B/4A/4B/4g/4B/4A/4B/4 | %34
 ^G/4B/4A/4B/4d/4B/4A/4B/4^g/4B/4A/4B/4 | ^A/4^c/4B/4c/4f/4c/4B/4c/4^a/4f/4e/4f/4 | %36
 g/4e/4d/4e/4f/4d/4^c/4d/4e/4c/4B/4c/4 | d/4B/4^A/4B/4^c/4A/4^G/4A/4B- | B/^c/4d/4e/^e/f- | %39
 f/B/4^c/4d/^d/e/f/ | g/4e/4=d/4e/4f/4d/4^c/4d/4e/4c/4B/4c/4 | d/4B/4^A/4B/4^c/4A/4^G/4A/4B- | %42
 B/^c/4d/4e/^e/f/^A/ | B/4d/4^c/4d/4f/4d/4c/4d/4b | z3 | z3 | %46
 =f/4d/4c/4d/4e/4c/4B/4c/4d/4B/4A/4B/4 | c/e/4d/4c/A/a- | a3- | %49
 a/4^f/4e/4f/4B/4f/4e/4f/4a/4f/4e/4f/4 | g/4e/4^d/4e/4f/4d/4^c/4d/4e/4c/4B/4c/4 | ^d/f/4e/4d/B/b- | %52
 b3- | b3- | b^a/=a/^g/=g/ | f/^d/4e/4f/b/B- | B/4=d/4c/4d/4=f/4d/4c/4d/4^g/4d/4c/4d/4 | %57
 c/4e/4d/4e/4a/4e/4d/4e/4c'/4e/4d/4e/4 | ^c/4e/4d/4e/4g/4e/4d/4e/4^c'/4e/4d/4e/4 | %59
 ^d/4f/4e/4f/4b/4f/4e/4f/4^d'/4b/4a/4b/4 | c'/4a/4g/4a/4b/4g/4f/4g/4a/4f/4e/4f/4 | %61
 g/4e/4^d/4e/4f/4d/4^c/4d/4e | =c'>b^a/=a/ | g/E/4F/4G/^G/A/^A/ | Be/^d/e/d/ | e/g/4f/4e/B/b- | %66
 b^a/=a/^g/=g/ | f/^d/4e/4f/b/B- | B/4=d/4c/4d/4=f/4d/4c/4d/4^g/4d/4c/4d/4 | %69
 c/4e/4d/4e/4a/4e/4d/4e/4c'/4e/4d/4e/4 | ^c/4e/4d/4e/4g/4e/4d/4e/4^a/4e/4d/4e/4 | %71
 ^d/4f/4e/4f/4b/4f/4e/4f/4^d'/4b/4a/4b/4 | c'/4a/4g/4a/4b/4g/4f/4g/4a/4f/4e/4f/4 | %73
 g/4e/4^d/4e/4f/4d/4^c/4d/4e- | e/f/4g/4a/^a/b/^d/ | e/4g/4f/4g/4b/4g/4f/4g/4!fermata!e'!fine! | %76
 z3 | z3 | z3 | A(d/^c/)(d/c/) | d/f/4e/4d/A/a- | ag/f/g/e/ | f/^d/4e/4f/b/B- | B/G/4A/4B/e/E- | %84
 E/e/(a/^g/)(a/g/) | a/c'/4b/4a/e/e'- | e'/d'/^c'/=c'/b/_b/ | a/^g/4a/4b/e'/e- | %88
 e/4G/4F/4G/4_B/4G/4F/4G/4^c/4G/4F/4G/4 | =F/4A/4G/4A/4d/4A/4G/4A/4=f/4A/4G/4A/4 | %90
 ^F/4A/4G/4A/4c/4A/4G/4A/4^f/4A/4G/4A/4 | ^G/4B/4A/4B/4e/4B/4A/4B/4^g/4e/4d/4e/4 | %92
 =f/4d/4c/4d/4e/4c/4B/4c/4d/4B/4A/4B/4 | c/4A/4^G/4A/4B/4G/4F/4G/4A- | A/B/4c/4d/^d/e- | %95
 e/f/4^g/4a/b/c'- | c'/4a/4^g/4a/4=f/4a/4g/4a/4d/4a/4g/4a/4 | %97
 b/4^g/4^f/4g/4e/4g/4f/4g/4c/4g/4f/4g/4 | a/g/4=f/4e/d/c/B/ | %99
 A/4c/4B/4c/4e/4c/4B/4c/4a/4e/4d/4e/4 | c'/4b/4a/4b/4c'/4a/4g/4a/4c'/4g/4f/4g/4 | %101
 c'/4f/4e/4f/4c'/4e/4d/4e/4c'/4d/4c/4d/4 | b/4a/4g/4a/4b/4g/4f/4g/4b/4f/4e/4f/4 | %103
 b/4e/4d/4e/4b/4d/4c/4d/4b/4c/4B/4c/4 | a/4g/4f/4g/4a/4f/4e/4f/4a/4e/4^d/4e/4 | %105
 a/4^d/4^c/4d/4a/4c/4B/4c/4a/4B/4A/4B/4 | g/4f/4e/4f/4g/4e/4d/4e/4g/4d/4^c/4d/4 | %107
 g/4^c/4B/4c/4 f2- | f/4e/4d/4e/4f/4d/4^c/4d/4f/4c/4B/4c/4 | f/4B/4A/4B/4 e2- | %110
 e/4c/4B/4c/4G/4c/4B/4c/4e/4c/4B/4c/4 | g/4e/4d/4e/4c/4e/4d/4e/4g/4e/4d/4e/4 | %112
 c'/4g/4=f/4g/4e/4g/4f/4g/4c'/4g/4f/4g/4 | e'3- | e'3- | e'/4e/4d/4e/4f/4d/4^c/4d/4e/4c/4B/4c/4 | %116
 d/4B/4^A/4B/4^c/4A/4^G/4A/4B- | B>^cd/^d/ | e/f/4g/4^A>B | B3!D.C.! || %120
V:2
 [B,G] z [CF] | [B,E] z [B,EG] | [A,E] z [CEF] | [B,^DF] z [B,DF] | [B,D=F] z [DE^G] | [CEA] z z | %6
w: ||||||
 [^CEG] z [^A,EF] | [B,^DF] z z | [CFA]3 | [B,G][^DA][EG] | F A2 | [B,EG]2 z | B e/^d/ e/d/ | %13
w: ||||||Er- schütt- * re~ _|
 e z/ B/ a | g f/e/ ^d/e/ | f/^d/e/^c/ B | [B,E] z [B,G] | [^DA] z [FA] | [B,G][EF][B,A] | %19
w: dich~ nur~ nicht,~|ver- sag- * te~ _|See- * * * le,~||||
 [B,EG]3 | B e/^d/ e/d/ | e z/ B/ a | g f e | ^de/^c/ B |{=de} =f e d | c/^c/d/ ^d/ e/ f/ | gf e | %27
w: |er- schütt~- * re~ _|dich~ nur~ nicht,~|ver- zag- te~|See- * * le,|wenn~ dir~ der~|Kreu- * * zes~- kelch~ so~|bit- * ter~|
 d2 f | d/^c/ d/c/ d- | d/ e/ f F | G/^G/A/^A/ B/G/ | T^A ^G/F/ ^c | (d^d/e/) f/B/ | g e d | %34
w: schmeckt,~ er-|schütt~- * re~ _ dich~|_ nur~ nicht,~ ver-|zag- * * * te~ _|See- le~ _ wenn~|dir~ _ _ der~ _|Kreu- zes~- kelch~|
 ^c (B/4c/4d/) (c/B/) | e3- | e ^c f- | f/ d/ e/ ^c/ d | ^c/B/ ^A3/2 B/ | B2 z | [^CEG]3 | %41
w: so~ bit- * * ter~ _|schmeckt,~|_ wenn~ dir~|_ der~ Kreu- zes~- kelch~|so~ _ bit- ter~|schmeckt,~||
 [DF][^CE][B,D] | [B,G][B,G][^A,EF] | [B,DF]3 | E d/c/ d/B/ | c3/2 d/ e | [B,D=F]3 | [CE] z z | %48
w: |||Er- schütt~- * re~ _|dich~ nur~ nicht,~|||
 F e/^d/ e/^c/ | ^d3/2 e/ f | [^CEG]3 | [^DF] z z | B e/^d/ e/d/ | e z/ B/ a | g f e | ^d ^c/B/ f | %56
w: Er- schütt~- * re~ _|dich~ nur~ nicht,~|||Er- schütt~- * re~ _|dich~ nur~ nicht,~|ver- sag- te~|See- le,~ _ wenn~|
 G^G/A/ B/E/ | c/^c/ d/^d/ e/f/ | g g/f/ g | (f A2-) | A F B- | B/ G/ A/ F/ G/g/ | f/e/ ^d3/2 e/ | %63
w: dir~ _ _ der~ _|Kreu- * zes~- * kelch~ _|so~ bit- * ter~|schmeckt,~ _|_ wenn~ dir~|_ der~ Kreu- zes~- kelch~ _|so~ _ bit- ter~|
 e2 z | [B,E]3 | [B,E] z [B,EG] | [A,E] z [CEF] | [B,^DF] z [B,DF] | [B,D=F] z [DE^G] | [CEA] z z | %70
w: schmeckt.~|||||||
 [^CEG] z [^A,EF] | [B,^DF] z z | [CFA]3 | [B,G][^DA][EG] | F A2 | [B,EG]2 z | g B/A/ B/G/ | %77
w: ||||||Gott~ ist~ _ dein~ _|
 d3/2 e/ f | g f/e/ f/g/4a/4 | f2 z | a c/B/ c/A/ | B e/^d/ e | A c B | G2 ^G | A/B/ TB3/2A/4B/4 | %85
w: wei- ser~ Arzt~|und~ Wun- * der _ _|mann,~|Gott ist~ _ dein _|wei- ser~ _ Arzt~|und~ Wun- der|mann,~ so~|dir~ _ kein _ _|
 c ^c2 | de =f | =fe/d/c/B/ | ^c/d/c/d/e- | ed/c/B/A/ | Bc/B/ (c/A/) | e2 z | d c/ B/ =f- | %93
w: töd- lich~|Gift~ _ ein-||||* * * ken~ _|kann,~|so~ dir~ kein~ töd-|
 f/e/ d/B/ c | B/A/ ^G3/2 A/ | A2 z | [A,D=F] z [B,DF] | [B,E] z [CE] | [DA][EA][DE^G] | [CEA]3 | %100
w: * * lich~ _ Gift~|ein- * schen- ken~|kann,~|||||
 e c B | A f/e/ f | d{c} B{A} G | E3 | c A G | F e/^c/ ^d/ B/ | e3- | e/f/e/d/e/^c/ | d3- | %109
w: ob gleich~ die~|Sü- ßig- * keit~|ver- bor- gen|steckt,~|ob~ gleich~ die~|Sü- ßig- * keit~ ver-|bor-|||
 d/e/d/^c/d/B/ | =c3- | c3- | c/=f/e/d/e/c/ | B/e/d/^c/d/B/ | ^A/d/^c/B/ (c/A/) | F3- | %116
w: |||||* * * * gen~ _|steckt,~|
 F/ ^G/ ^A/B/ ^c/d/ | e/f/ g/e/ f | z/ B/{A} G F/G/4E/4 | ^D2 z || %120
w: _ ob~ gleich~ _ die~ _|Sü- * ßig- * keit~|ver- bor- gen _ _|steckt.|
V:3
 E, z F, | G, z E, | C, z A,, | B,, z A,, | ^G,, z E,, | A,, z z | ^A,, z F,, | B,, z z | %8
 (^D,D,D,) | E,B,,C, | A,,F,,B,, | E,,2 z | E, z F, | (G,/F,/)(E,/^D,/)(E,/D,/) | E,A,,C, | %15
 B,,B,A, | G, z E, | F, z ^D, | E,A,,B,, | E,,(E,/^D,/)(E,/D,/) | E, z F, | %21
 (G,/F,/)(E,/^D,/)(E,/D,/) | E, z ^A,, | B,, z A,, | ^G,, z E,, | A,, z G,, | F,, z F, | %27
 B,,/F,/(G,/^G,/)(A,/^A,/) | B, z F, | D, z ^D, | E, z ^E, | F, z ^A, | B, z B,, | E, z E,, | %34
 ^E,, z ^E, | F,^A,F, | (^A,,A,,A,,) | B,,G,F, | E,F,F,, | B,, z B, | (^A,A,A,) | B,F,G, | %42
 E,^C,F, | B,,(B,A,) | ^G, z E, | A,/^G,/(A,/B,/)(C/A,/) | (^G,G,G,) | A, z G, | F,A,F, | %49
 B,/^A,/(B,/^C/)(^D/B,/) | (^A,A,A,) | B, z/ =A,/G,/F,/ | E, z F, | (G,/F,/)(E,/^D,/)(E,/D,/) | %54
 E, z ^A,, | B,, z ^D, | E, z E,, | A,, z A, | ^A, z ^A,, | B,,^D,B,, | (^D,,D,,D,,) | E,,C,B,, | %62
 A,,B,,B,, | E,,2 F,, | G,,(G,/F,/)(G,/F,/) | G, z E, | C, z A,, | B,, z A,, | ^G,, z E,, | %69
 A,, z z | ^A,, z F,, | B,, z z | (^D,D,D,) | E,B,,C, | A,,F,,B,, | !fermata!E,,2 z | E, z z | %77
 B,(D,/^C,/)(D,/B,,/) | E,A,A,, | D,2 E, | F, z D, | G, z C- | C^D,/^C,/D,/B,,/ | %83
 E,=D,/=C,/D,/B,,/ | C,D,E, | A,,A,G, | =F,E,D, | E,F,^G, | A, z A,, | D, z D,, | ^D,, z ^D, | %91
 E,(D,/C,/)(D,/B,,/) | (^G,,G,,G,,) | A,,^E,=E, | D,E,E,, | A,,C,A,, | D, z B,, | ^G,, z A,, | %98
 =F,C,E, | A,,C,E, | A,2 z | D,A,,D,, | G,,2 z | C,G,,C,, | F,,2 z | B,,F,B, | E,^C,B,, | ^A,,2 z | %108
 B,,B,A, | G,2 z | (E,,E,,E,,) | (E,,E,,E,,) | (E,,E,,E,,) | D,,G,E, | ^C,E,C, | (^A,,A,,A,,) | %116
 B,, z2 | G,^A,,B,, | (G,,/E,,/)(F,,/E,,/)F,, | B,,3 || %120
V:4
 x3 | x3 | x3 | x3 | x3 | x3 | x3 | x3 | x3 | x3 | [CE]2 [B,^D] | x3 | x3 | x3 | x3 | x3 | x3 | %17
 x3 | x3 | x3 | x3 | x3 | x3 | x3 | x3 | x3 | x3 | x3 | x3 | x3 | x3 | x3 | x3 | x3 | x3 | x3 | %36
 x3 | x3 | x3 | x3 | x3 | x3 | x3 | x3 | x3 | x3 | x3 | x3 | x3 | x3 | x3 | x3 | x3 | x3 | x3 | %55
 x3 | x3 | x3 | x3 | x3 | x3 | x3 | x3 | x3 | x3 | x3 | x3 | x3 | x3 | x3 | x3 | x3 | x3 | x3 | %74
 [CE]2 [B,^D] | x3 | x3 | x3 | x3 | x3 | x3 | x3 | x3 | x3 | x3 | x3 | x3 | x3 | x3 | x3 | x3 | %91
 x3 | x3 | x3 | x3 | x3 | x3 | x3 | x3 | x3 | x3 | x3 | x3 | x3 | x3 | x3 | x3 | x3 | x3 | x3 | %110
 x3 | x3 | x3 | x3 | x3 | x3 | x3 | x3 | x3 | x3 || %120

